dist/svg/server-cloud.svg

<!-- Generated by Trend Micro Style Portal -->
<svg version="1.1" xmlns="http://www.w3.org/2000/svg" width="16" height="16" viewBox="0 0 16 16">
  <title>server-cloud</title>
  <path fill="rgb(34,34,34)" d="M1 0v3h14v-3zM6 2h-3v-1h3zM1 4v3h14v-3zM6 6h-3v-1h3zM7 8h8v3h-2.34c-0.577-1.19-1.774-1.996-3.16-2h-0c-0.273 0-0.539 0.033-0.793 0.095l0.023-0.005c-0.413-0.555-1.017-0.95-1.712-1.087l-0.018-0.003zM5 8l-2.45 2c-0.106-0.019-0.227-0.030-0.352-0.030-0.449 0-0.865 0.142-1.205 0.384l0.006-0.004v-2.35h4c-1.114 0.225-2.014 0.977-2.442 1.978l-0.008 0.022zM6 10c0.666 0.003 1.255 0.331 1.616 0.834l0.004 0.006 0.49 0.68 0.75-0.36c0.186-0.097 0.406-0.155 0.638-0.16l0.002-0c0.009-0 0.020-0 0.030-0 0.722 0 1.325 0.511 1.468 1.191l0.002 0.010 0.16 0.8h2.84c0.552 0 1 0.448 1 1s-0.448 1-1 1v0h-11.5c-0.828 0-1.5-0.672-1.5-1.5s0.672-1.5 1.5-1.5v0c0.14 0.003 0.274 0.025 0.401 0.063l-0.011-0.003 0.93 0.25 0.29-0.91c0.261-0.813 1.007-1.392 1.889-1.4h0.001zM6 9c-1.331 0.005-2.457 0.876-2.844 2.079l-0.006 0.021c-0.194-0.059-0.417-0.095-0.647-0.1l-0.003-0c-1.381 0-2.5 1.119-2.5 2.5s1.119 2.5 2.5 2.5v0h11.5c1.105 0 2-0.895 2-2s-0.895-2-2-2v0h-2.050c-0.232-1.148-1.233-2.001-2.433-2.001-0.396 0-0.769 0.093-1.101 0.257l0.014-0.006c-0.55-0.759-1.433-1.248-2.43-1.25h-0z"></path>
</svg>

<svg width="16" height="16" viewBox="0 0 16 16" fill="rgb(34, 34, 34)" xmlns="http://www.w3.org/2000/svg"><title>server-cloud</title><path d="M1 0V3H15V0H1ZM6 2H3V1H6V2ZM1 4V7H15V4H1ZM6 6H3V5H6V6ZM7 8H15V11H12.66C12.083 9.81 10.886 9.004 9.5 9C9.227 9 8.961 9.033 8.707 9.095L8.73 9.09C8.317 8.535 7.713 8.14 7.018 8.003L7 8ZM2.55 10C2.444 9.981 2.323 9.97 2.198 9.97C1.749 9.97 1.333 10.112 0.993 10.354L0.999 10.35V8H5C3.886 8.225 2.985 8.977 2.557 9.978L2.55 10ZM6 10C6.666 10.003 7.255 10.331 7.616 10.834L7.62 10.84L8.11 11.52L8.86 11.16C9.046 11.063 9.266 11.005 9.498 11H9.5C9.509 11 9.52 11 9.53 11C10.252 11 10.855 11.511 10.998 12.191L11 12.201L11.16 13.001H14C14.552 13.001 15 13.449 15 14.001C15 14.553 14.552 15.001 14 15.001H2.5C1.672 15.001 1 14.329 1 13.501C1 12.673 1.672 12.001 2.5 12.001C2.64 12.004 2.774 12.026 2.901 12.064L2.89 12.061L3.82 12.311L4.11 11.401C4.371 10.588 5.117 10.009 5.999 10.001L6 10ZM6 9C4.669 9.005 3.543 9.876 3.156 11.079L3.15 11.1C2.956 11.041 2.733 11.005 2.503 11H2.5C1.119 11 0 12.119 0 13.5C0 14.881 1.119 16 2.5 16H14C15.105 16 16 15.105 16 14C16 12.895 15.105 12 14 12H11.95C11.718 10.852 10.717 9.999 9.517 9.999C9.121 9.999 8.748 10.092 8.416 10.256L8.43 10.25C7.88 9.491 6.997 9.002 6 9Z" fill="rgb(34, 34, 34)" fill-opacity="1.00"/></svg>
